public/icons/html-dot.svg

<svg width="24" height="24" viewBox="0 0 24 24" xmlns="http://www.w3.org/2000/svg"><g fill="none" fill-rule="evenodd"><path d="M8.20711038 4.29289C8.59763038 4.68342 8.59763038 5.31658 8.20711038 5.70711L3.91421038 10 8.20711038 14.2929C8.59763038 14.6834 8.59763038 15.3166 8.20711038 15.7071 7.81658038 16.0976 7.18342038 16.0976 6.79289038 15.7071L1.79289038 10.7071C1.40236938 10.3166 1.40236938 9.6834 1.79289038 9.2929L6.79289038 4.29289C7.18342038 3.90237 7.81658038 3.90237 8.20711038 4.29289ZM12.2929004 15.7071C11.9024004 15.3166 11.9024004 14.6834 12.2929004 14.2929L16.5858004 10 12.2929004 5.70711C11.9024004 5.31658 11.9024004 4.68342 12.2929004 4.29289 12.6834004 3.90237 13.3166004 3.90237 13.7071004 4.29289L18.7071004 9.2929C19.0976004 9.6834 19.0976004 10.3166 18.7071004 10.7071L13.7071004 15.7071C13.3166004 16.0976 12.6834004 16.0976 12.2929004 15.7071Z" fill-rule="nonzero"/><circle fill-rule="nonzero" cx="21.5" cy="19" r="1"/></g></svg>

<svg xmlns="http://www.w3.org/2000/svg" viewBox="0 0 24 24"><path d="M8.207 4.293a1 1 0 0 1 0 1.414L3.914 10l4.293 4.293a1 1 0 1 1-1.414 1.414l-5-5a1 1 0 0 1 0-1.414l5-5a1 1 0 0 1 1.414 0Zm4.086 11.414a1 1 0 0 1 0-1.414L16.586 10l-4.293-4.293a1 1 0 0 1 1.414-1.414l5 5a1 1 0 0 1 0 1.414l-5 5a1 1 0 0 1-1.414 0Z"/><circle cx="21.5" cy="19" r="1"/></svg>
